X:1
T:N 3. THEME.
T: 42. HYMNE
T:G. F. HAËNDEL ̣(1685-1759)
T:Cette hymne de Haëndel, aux accords pleins et coulants, à la mélodie douce et tranquille, doit être jouée, une premiere fois piano, avec des jeux de 8 et une deuxième fois, forte, sur le Grand.Jeu, avec un motto allargando aux dernières mesures, les octaves de la main gauche, seront liées le plus posible. Le style de Haënde est toujours noble, pompeux et grandiose, qualites sans cesse entretenues par la frequentation des cours royales et princières au milieu desquelles il vécut, surtout en Angleterre où il était traité à l'égal des grands seigneurs. Vers la fin de sa vie, abandcnnant le théâtre, il composa un grand nombre d'oraorios, genre dans lequel il a excellé. Il composait avec une facilité tenant du prodige: trois semaines lui suffirent pour écrire le "Mesie"; il en fut de même pour "Judas-Machabée:"    
T:Louis Raffy Organistes Célébres Grands Maitres Classiques - VOLUME I
T:Louis Raffy Organistes Célébres Grands Maitres Classiques - VOLUME I
C:F. SCHUBERT (1797-1828)
Z:Louis Raffy Organistes Célébres Grands Maitres Classiques - VOLUME I
%%score { ( 1 4 ) | ( 2 3 ) }
L:1/8
Q:1/4=160
M:3/2
K:D
V:1 treble nm="Organ" snm="Org."
V:4 treble 
V:2 bass 
V:3 bass 
V:1
!p!"^Maestoso" !2![FA]4 | !5![Fd]4!<(! !2![Ad]4!<)! !3![Ae]4 | !4![Af]8 ([Aa]4 | %3
!>(! !3![Bd]4 !4![Be]4!>)! !2![Ac]4 | (!3![Ad]8)!<(! !4![Ae]4!<)! |!>(! !5!f4 !4!e4!>)! !3-5!d4 | %6
 [Fc]8!<(! [FAd]4!<)! | !5![EAe]4 !5!d2 !4!c2!>(! !3-4!B3 !3!A!>)! | A8)!mf! (!3![F-c]4 | %9
 !4![Fd]4)!<(! !2-1!!5-4![Be]4 !2!!5![^Af]4!<)! |!>(! !3!d4!>)! !2!B4 (!5!g4 | %11
 !4!f4)!<(! !3!e4 !2!d4!<)! |!f! !5![Aca]8!p!!<)!!<(! !2!A4 |!<(! B4 [Gc]4 !2!!5![Fd]4!<)! | %14
 !5![EAe]4"_cresc." !2![EA]4 [FAf]4 | !1!!3![GB]4 (!2!!5![Ge]4!>(! !4![Ec]4!>)! | %16
 !5!!2![Fd]8)!f! (!2!A4 | [FAd]4!<(! !5![DAd]4!<)! !3!!5![Ece]4 | !4!!5![Fdf]8) ([Aea]4 | %19
 !1!!2!!4![FBd]4!>(! !5![EBe]4 !4![EAc]4!>)! | !1!!5![FAd]8) (!3![Ae]4 | %21
!<(! !4!f4 !3-5!e4!<)! !4-5![E^Gd]4 | !4![Ac]8 !-3!!4!d4 | %23
 !5![EAe]4!>(! !5!d2 !4-5!c2!>)! !4!B3 !3!A | !5![CEA]8) (!3![F-^Ac]4 | %25
 !4![FBd]4 !5![EBe]4 [F^Af]4 | !5![FBd]4 !4![DFB]4 [A-eg]4 | %27
!<(! !4![Adf]4 !5![EAe]4 !4![E^Gd]4!<)! |!f! [Aca]8) (!3![D-A]4 | %29
"_cresc." !4-3![DGB]4 !4![GAc]4 !5![FAd]4 | [Ae]4 A4 [FAf]4 | %31
"_cresc." !3![GB]4 !5![GBe]4 !4![EAc]4 | !fermata!!2!!5![Fd]12) |] %33
V:2
"^1""^4""^4""^1" !5!!2![D,A,]4 | [D,A,]4 !4!!1![F,D]4 !2!!1![A,C]4 | !1!D8 !1!!3![CE]4 | %3
 !4!!2![B,F]4 !5![G,G]4 !4![A,E]4 | !2!!1![DF]8 !3!C4 | !2!D4 !3!!1-2![CE]4 !4-3!!1![B,F]4 | %6
 !5-2!F,8 !4!D,4 | C,4 D,4 E,2 !1!D2 | !3!!2![A,C]8 !4!!2![F,^A,]4 | %9
 !1!B,4 !4![G,B,]4 !5!!2![F,C]4 | !3-4!B,4 !2!D4 !1!E4 | !2!D4 E8- | !5![A,E]8 !4![F,D-]4 | %13
 !3![G,D]4 !5-4![E,E]4 !5!D,4 | !4!C,8 !5![D,D-]4 | [G,D]4 [E,G,]4 A,4- | [D,A,]8 [A,,A,]4 | %17
 [D,,D,]4 [F,,F,]4 [A,,A,]4 | [D,,D,]4 [D,D]4 [C,C]4 | !5-3![B,,B,]4 !5![G,,G,]4 !4-3![A,,A,]4 | %20
 [D,,D,]4 [D,D]4 !4![C,C]4 | [D,D]4 [C,C]4 [B,,B,]4 | %22
 [A,,A,]2 [^G,,^G,]2 [F,,F,]4 [E,,E,]2 [D,,D,]2 | [C,,C,]4 [D,,D,]4 [E,,E,]4 | [A,,A,]8 [F,,F,]4 | %25
 [B,,B,]4 [G,,G,]4 [F,,F,]4 | [B,,B,]8 [C,C]4 | [D,D]4 [C,C]4 [B,,B,]4 | %28
 [A,,A,]4- [A,,A,]2 [=G,,=G,]2 [F,,F,]4 | [G,,G,]2 [A,,A,]2 [G,,G,]2 [F,,F,]2 [E,,E,]2 [D,,D,]2 | %30
 [C,,C,]2 [E,,E,]2 [A,,A,]2 [C,C]2 [D,D]4 | [G,,G,]2 [F,,F,]2 [E,,E,]4 [A,,A,]4 | %32
 !fermata![D,,D,]12 |] %33
V:3
 x4 | x12 | !5!D,4 !2!D4 x4 | x12 | x12 | x12 | x12 | x8 !3-5!E,4 | x12 | x12 | B,8 !3!C4 | %11
 D4 C4 !4!B,4 | x12 | x12 | x12 | x12 | x12 | x12 | x12 | x12 | x12 | x12 | x12 | x12 | x12 | x12 | %26
 x12 | x12 | x12 | x12 | x12 | x12 | x12 |] %33
V:4
 x4 | x12 | x12 | x12 | x12 | A8 !1-3!B4 | A8 x4 | x4 [FA]4 !2!^G4 | x12 | x12 | B8 =A4- | A8 ^G4 | %12
 x8 A4- | A4 x8 | x12 | x12 | x12 | x12 | x12 | x12 | x12 | A8 x4 | E4 !1!F4 [FA]4 | %23
 x4 [FA]4 [D^G]4 | x12 | x12 | x12 | x12 | x12 | x12 | E8 x4 | x12 | A8 x4 |] %33

